X:68
T:Sweet Genevieve
% Four-part piano arrangement for standard notation.
C:Geo. Cooper/Henry Tucker Arr. by Henry S. Sawyer
S:Source "The One Hundred and One Best Songs" - The Cable Company - 1919 - Chicago, Illinois
M:3/4
L:1/8
Q:1/4=88
%%staves [(1 2) (3 4)]
K:Bb
V:1 clef=treble
"@@Andante"F2 | d > ^c d2 e2 | d > ^c =c2 F2 | c > =B c2 d2 | (3cB G F2
w:1.~O Gen-e-vieve, I'd give the world To live a-gain the love\-* ly past!
w:2.~Fair Gen-e-vieve, my ear-ly love, The years but make thee dear\-* er far!
V:2 clef=treble
D2 | F > =E F2 G2 | F > =E _E2 _E2 | E > D E2 F2 | (3ED E D2
V:3 clef=bass
%%MIDI transpose -24
%%jsastem=dn
b2 | b > b b2 b2 | a > a a2 c'2 | a > ^g a2 a2 | (3f-f g b2
V:4 clef=bass
%%MIDI transpose -24
%%jsastem=dn
B2 | B > B B2 B2 | f > f f2 a2 | f > f f2 f2 | (3B-B B B2
V:1
F2 | d > ^c d2 f2 | f > =e e2 e2 | d > ^c d2 F2 | c > B B2 z
w:The rose of youth was dew im-pearled, But now it with-ers in the blast.
w:My heart shall nev-er, nev-er rove, Thou art my on-ly guid-ing star.
V:2
D2 | F > =E F2 _A2 | G > G G2 _G2 | F > =E F2 D2 | E > D D2 z
V:3
b2 | b > b b2 b2 | b > b b2 b2 | b > b b2 b2 | a > b b2 z
V:4
B2 | B > B B2 d2 | e > e e2 e2 | f > f f2 f2 | f > B B2 z
V:1
B | c d e2 G2 | F B d2 B2 | c d f2 e2 | B c d2 z
w:I see thy face in ev-'ry dream, My wak-ing tho'ts are full of thee;
w:For me the past has no re-gret, What-e'er the years may bring to me;
V:2
F | F F F2 E2 | D D F2 F2 | G G G2 G2 | G G ^F2 z
V:3
b | a b c'2 a2 | b b b2 d'2 | c' =b d'2 c'2 | _b a a2 z
V:4
d | f f f2 f2 | B B B2 B2 | e d =B2 c2 | e e d2 z
V:1
d | d d e2 d2 | c d G2 A2 | B B c2 B2 | A G HdHe
w:Thy glance is in the star-ry beam That falls a-long the sum-mer sea.*
w:I bless the hour when first we met The hour that gave me love and thee!*
V:2
^F | ^F ^F ^F2 ^F2 | ^F ^F G2 ^F2 | G G A2 G2 | ^C G H^FH=F
V:3
a | a d' c'2 a2 | d' d' d'2 d'2 | d' d' e'2 d'2 | a ^c' Hd'Ha
V:4
d | d d d2 d2 | d c B2 A2 | G g ^f2 g2 | =e _e HdHc
V:1
H"@{^^CHORUS"e2 | d > ^c d2 e2 | d > ^c =c2 F2 | c > =B c2 d2 | (3c_B G F2 F2 |
w:O Gen-e-vieve, sweet Gen-e-vieve! The days may come, the days* may go, But
V:2
HG2 | F > =E F2 G2 | F > =E _E2 _E2 | E > D E2 F2 | (3ED E D2 D2 |
V:3
Ha2 | b > b b2 b2 | a > a a2 c'2 | a > ^g a2 a2 | (3f-f g b2 b2 |
V:4
Hf2 | B > B B2 B2 | f > f f2 a2 | f > f f2 f2 | (3B-B B B2 B2 |
V:1
%%LineSep 10pt
d > ^c d2 f2 | f > =e He2 e2 | d > ^c d2 F2 | c > B HB2 || "@>ad lib"HOe2 | d > ^c Hd2 ||
w:still the hands of mem-'ry weave The bliss-ful dream of long a-go. O Gen-e-vieve!
V:2
F > =E F2 _A2 | G > G HG2 _G2 | F > =E F2 D2 | E > D HD2 || "@>ad lib"OHG2 | F > =E HF2 ||
V:3
b > b b2 b2 | b > b Hb2 b2 | b > b b2 b2 | a > f Hf2 || "@>ad lib"OHb2 | b > b Hb2 ||
V:4
B > B B2 d2 | e > e He2 e2 | f > f f2 f2 | f > B HB2 || "@>ad lib"OHB2 | B > B HB2 ||

